packages/kaspersky-hexa-ui-icons/src/iconsSVGs/24/ProtectionSolid.svg

<svg width="24" height="24" viewBox="0 0 24 24" fill="none" xmlns="http://www.w3.org/2000/svg">
<path fill-rule="evenodd" clip-rule="evenodd" d="M11.0997 2.3516C11.6774 2.05174 12.3648 2.05174 12.9425 2.3516L19.5029 5.75693C19.8342 5.92892 20.0422 6.27116 20.0422 6.64448V11.8148C20.0422 12.812 19.9295 13.8914 19.5121 14.9175C18.3866 17.6846 16.6035 19.4407 15.1016 20.5022C14.3517 21.0322 13.6698 21.3908 13.1694 21.6189C12.9109 21.7368 12.3 22 12.0211 22C11.7422 22 11.003 21.7014 10.8919 21.6543C10.3833 21.4391 9.69148 21.0949 8.93197 20.5711C7.40804 19.5202 5.61429 17.7471 4.49525 14.8687C4.10685 13.8696 4 12.8253 4 11.8567V6.64448C4 6.27116 4.20795 5.92892 4.53929 5.75693L11.0997 2.3516ZM15.974 9.27047C16.3769 9.6482 16.3973 10.281 16.0196 10.6839L12.2696 14.6839C12.0862 14.8796 11.8319 14.9933 11.5639 14.9997C11.2958 15.0061 11.0364 14.9046 10.8439 14.7179L8.59389 12.5361C8.19741 12.1516 8.18767 11.5185 8.57214 11.122C8.95661 10.7256 9.5897 10.7158 9.98619 11.1003L11.5061 12.5741L14.5605 9.31606C14.9382 8.91315 15.5711 8.89274 15.974 9.27047Z" fill="black"/>
</svg>

<svg xmlns="http://www.w3.org/2000/svg" width="24" height="24" fill="none" viewBox="0 0 24 24"><path fill="#000" fill-rule="evenodd" d="M11.0997 2.3516a2 2 0 0 1 1.8428 0l6.5604 3.4053a1 1 0 0 1 .5393.8876v5.1703c0 .9972-.1127 2.0766-.5301 3.1027-1.1255 2.7671-2.9086 4.5232-4.4105 5.5847-.7499.53-1.4318.8886-1.9322 1.1167-.2585.1179-.8694.3811-1.1483.3811s-1.0181-.2986-1.1292-.3457c-.5086-.2152-1.2004-.5594-1.96-1.0832-1.5239-1.0509-3.3176-2.824-4.4366-5.7024C4.1068 13.8696 4 12.8253 4 11.8567V6.6445a1 1 0 0 1 .5393-.8876zm4.8743 6.9189c.4029.3777.4233 1.0105.0456 1.4134l-3.75 4a1 1 0 0 1-1.4257.034l-2.25-2.1818c-.3965-.3845-.4062-1.0176-.0218-1.4141s1.0176-.4062 1.414-.0217l1.52 1.4738 3.0544-3.258c.3777-.403 1.0106-.4234 1.4135-.0456" clip-rule="evenodd"/></svg>
